X: 37264
T: Skelton's
R: mazurka
M: 3/4
K: Dmajor
D>G G>F G2|D>B B>A B2|c>B A>G F>G|A>G F>E D2|
D>G G>F G2|D>B B>A B2|c>B A>G F>A|G4:|
d2 d>e d>c|B2 G2 A>B|c2 c>d c>B|A4 B>c|
d2 d>e d>c|B2 G2 A>B|c>B A>G F>A|G4:|
A>d d>c d2|A>f f>e f2|g>f e>d c>d|e>d c>B A2|
A>d d>c d2|A>f f>e f2|g>f e>d c>e|d4:|
a2 a>b a>g|f2 d2 e>f|g2 g>a g>f|e4 f>g|
a2 a>b a>g|f2 d2 e>f|g>f e>d c>e|d4:|
DG GF G2|DB BA B2|cB AG FG|AG FE D2|
DG GF G2|DB BA B2|cB AG FA|G4:|
d2 de dc|B2 G2 AB|c2 cd cB|A4 Bc|
d2 de dc|B2 G2 AB|cB AG FA|G4:|
Ad dc d2|Af fe f2|gf ed cd|ed cB A2|
Ad dc d2|Af fe f2|gf ed ce|d4:|
a2 ab ag|f2 d2 ef|g2 ga gf|e4 fg|
a2 ab ag|f2 d2 ef|gf ed ce|d4:|

